static/img/tauri_with_wordmark_mono.svg

<svg width="430" height="134" viewBox="0 0 430 134" fill="none" xmlns="http://www.w3.org/2000/svg">
<path d="M177.007 104.258C176.378 104.258 175.812 104.039 175.309 103.6C174.868 103.1 174.648 102.536 174.648 101.91V53.2757H157.85C157.221 53.2757 156.655 53.0566 156.151 52.6185C155.711 52.1177 155.491 51.5544 155.491 50.9284V40.8823C155.491 40.1937 155.711 39.6304 156.151 39.1923C156.655 38.7541 157.221 38.535 157.85 38.535H208.622C209.314 38.535 209.88 38.7541 210.321 39.1923C210.761 39.6304 210.981 40.1937 210.981 40.8823V50.9284C210.981 51.617 210.761 52.1803 210.321 52.6185C209.88 53.0566 209.314 53.2757 208.622 53.2757H191.824V101.91C191.824 102.536 191.604 103.1 191.163 103.6C190.723 104.039 190.157 104.258 189.465 104.258H177.007Z" fill="#2F2F2F"/>
<path d="M209.056 104.258C208.552 104.258 208.08 104.07 207.64 103.694C207.263 103.256 207.074 102.787 207.074 102.286C207.074 101.91 207.105 101.629 207.168 101.441L229.346 41.1639C229.534 40.4128 229.943 39.7869 230.572 39.2862C231.201 38.7854 232.019 38.535 233.026 38.535H246.993C248 38.535 248.818 38.7854 249.447 39.2862C250.076 39.7869 250.485 40.4128 250.674 41.1639L272.757 101.441L272.945 102.286C272.945 102.787 272.725 103.256 272.285 103.694C271.907 104.07 271.435 104.258 270.869 104.258H259.261C257.751 104.258 256.745 103.6 256.241 102.286L252.561 92.7093H227.364L223.778 102.286C223.274 103.6 222.236 104.258 220.663 104.258H209.056ZM248.786 79.1892L240.01 54.4024L231.233 79.1892H248.786Z" fill="#2F2F2F"/>
<path d="M306.654 105.197C297.784 105.197 290.831 103.037 285.798 98.7182C280.828 94.3993 278.343 87.8896 278.343 79.1892V40.8823C278.343 40.1937 278.563 39.6304 279.004 39.1923C279.507 38.7541 280.073 38.535 280.702 38.535H292.876C293.568 38.535 294.134 38.7541 294.575 39.1923C295.078 39.6304 295.33 40.1937 295.33 40.8823V79.0953C295.33 83.1638 296.274 86.2309 298.161 88.2965C300.111 90.2994 302.911 91.3009 306.56 91.3009C310.146 91.3009 312.914 90.2681 314.865 88.2026C316.815 86.137 317.79 83.1012 317.79 79.0953V40.8823C317.79 40.1937 318.011 39.6304 318.451 39.1923C318.954 38.7541 319.52 38.535 320.15 38.535H332.418C333.11 38.535 333.676 38.7541 334.117 39.1923C334.557 39.6304 334.777 40.1937 334.777 40.8823V79.1892C334.777 87.8896 332.261 94.3993 327.228 98.7182C322.257 103.037 315.4 105.197 306.654 105.197Z" fill="#2F2F2F"/>
<path d="M349.651 104.258C349.022 104.258 348.456 104.039 347.952 103.6C347.512 103.1 347.292 102.536 347.292 101.91V40.8823C347.292 40.1937 347.512 39.6304 347.952 39.1923C348.456 38.7541 349.022 38.535 349.651 38.535H375.32C383.562 38.535 389.979 40.4128 394.572 44.1684C399.228 47.8614 401.556 53.1192 401.556 59.9418C401.556 64.3233 400.518 68.0476 398.441 71.1147C396.365 74.1817 393.503 76.529 389.854 78.1564L402.782 101.253C402.971 101.629 403.066 101.973 403.066 102.286C403.066 102.787 402.845 103.256 402.405 103.694C402.028 104.07 401.587 104.258 401.084 104.258H388.532C386.708 104.258 385.418 103.413 384.663 101.723L373.905 81.067H364.279V101.91C364.279 102.599 364.027 103.162 363.524 103.6C363.083 104.039 362.517 104.258 361.825 104.258H349.651ZM375.132 67.7347C378.026 67.7347 380.228 67.0461 381.738 65.6691C383.248 64.2295 384.003 62.2578 384.003 59.7541C384.003 57.2503 383.248 55.2787 381.738 53.839C380.291 52.3368 378.089 51.5857 375.132 51.5857H364.279V67.7347H375.132Z" fill="#2F2F2F"/>
<path d="M414.9 104.258C414.271 104.258 413.705 104.039 413.202 103.6C412.761 103.1 412.541 102.536 412.541 101.91V40.8823C412.541 40.1937 412.761 39.6304 413.202 39.1923C413.705 38.7541 414.271 38.535 414.9 38.535H427.546C428.238 38.535 428.805 38.7541 429.245 39.1923C429.748 39.6304 430 40.1937 430 40.8823V101.91C430 102.599 429.748 103.162 429.245 103.6C428.805 104.039 428.238 104.258 427.546 104.258H414.9Z" fill="#2F2F2F"/>
<path d="M82.875 48.3847C82.875 55.3834 77.1723 61.0569 70.1377 61.0569C63.1031 61.0569 57.4004 55.3834 57.4004 48.3847C57.4004 41.3861 63.1031 35.7125 70.1377 35.7125C77.1723 35.7125 82.875 41.3861 82.875 48.3847Z" fill="#2F2F2F"/>
<ellipse cx="48.7158" cy="84.6734" rx="12.7373" ry="12.6722" transform="rotate(180 48.7158 84.6734)" fill="#2F2F2F"/>
<path fill-rule="evenodd" clip-rule="evenodd" d="M96.5362 89.0212C91.3961 92.3263 85.7006 94.6205 79.757 95.8137C80.9736 92.3237 81.6346 88.5753 81.6346 84.6733C81.6346 83.258 81.5477 81.8629 81.3788 80.493C83.936 79.6069 86.3909 78.4172 88.688 76.9401C94.2155 73.386 98.5938 68.3195 101.297 62.3496C104 56.3796 104.913 49.7601 103.926 43.2863C102.939 36.8126 100.095 30.7601 95.7337 25.856C91.3728 20.952 85.6814 17.405 79.3432 15.6413C73.0051 13.8776 66.2899 13.9721 60.0045 15.9136C53.719 17.8551 48.1308 21.561 43.9112 26.5859C43.3707 27.2295 42.8557 27.8913 42.3667 28.5696C35.8552 29.2894 29.5485 31.1228 23.7163 33.9589C25.6146 27.9126 28.6968 22.268 32.8154 17.3634C38.8202 10.2125 46.7727 4.93885 55.7173 2.17595C64.6619 -0.586961 74.2182 -0.721547 83.2378 1.78836C92.2574 4.29827 100.357 9.34589 106.563 16.3247C112.768 23.3036 116.817 31.9167 118.221 41.1293C119.626 50.3419 118.326 59.762 114.48 68.2577C110.633 76.7534 104.402 83.9633 96.5362 89.0212ZM24.2954 42.7831L36.2178 44.2399C36.5017 41.9409 37.0194 39.6881 37.7568 37.514C33.0282 38.5935 28.4904 40.3708 24.2954 42.7831Z" fill="#2F2F2F"/>
<path fill-rule="evenodd" clip-rule="evenodd" d="M22.235 44.037C27.4137 40.7071 33.1562 38.4032 39.1481 37.2178C37.7935 40.8776 37.0539 44.8333 37.0539 48.9608C37.0539 50.1954 37.1201 51.4146 37.2491 52.6151C34.7434 53.4958 32.3373 54.6686 30.0831 56.118C24.5557 59.6722 20.1773 64.7386 17.4742 70.7086C14.771 76.6785 13.858 83.2981 14.8449 89.7718C15.8318 96.2455 18.6766 102.298 23.0375 107.202C27.3984 112.106 33.0898 115.653 39.4279 117.417C45.7661 119.181 52.4813 119.086 58.7667 117.145C65.0521 115.203 70.6404 111.497 74.8599 106.472C75.4031 105.825 75.9207 105.16 76.4119 104.478C82.9288 103.747 89.2376 101.902 95.0698 99.0516C93.1727 105.116 90.0851 110.777 85.9557 115.695C79.9509 122.846 71.9985 128.119 63.0538 130.882C54.1092 133.645 44.553 133.78 35.5333 131.27C26.5137 128.76 18.4144 123.712 12.2085 116.733C6.0027 109.755 1.95435 101.141 0.549917 91.9288C-0.854511 82.7162 0.444728 73.2961 4.29152 64.8004C8.13832 56.3047 14.369 49.0948 22.235 44.037Z" fill="#2F2F2F"/>
</svg>

<svg width="430" height="134" fill="none" xmlns="http://www.w3.org/2000/svg"><path d="M177.007 104.258c-.629 0-1.195-.219-1.698-.658-.441-.5-.661-1.064-.661-1.69V53.276H157.85c-.629 0-1.195-.22-1.699-.658-.44-.5-.66-1.064-.66-1.69V40.882c0-.688.22-1.252.66-1.69.504-.438 1.07-.657 1.699-.657h50.772c.692 0 1.258.22 1.699.657.44.438.66 1.002.66 1.69v10.046c0 .689-.22 1.252-.66 1.69-.441.439-1.007.658-1.699.658h-16.798v48.634c0 .626-.22 1.19-.661 1.69-.44.439-1.006.658-1.698.658h-12.458Zm32.049 0c-.504 0-.976-.188-1.416-.564-.377-.438-.566-.907-.566-1.408 0-.376.031-.657.094-.845l22.178-60.277a3.406 3.406 0 0 1 1.226-1.878c.629-.5 1.447-.751 2.454-.751h13.967c1.007 0 1.825.25 2.454.751a3.413 3.413 0 0 1 1.227 1.878l22.083 60.277.188.845c0 .501-.22.97-.66 1.408-.378.376-.85.564-1.416.564h-11.608c-1.51 0-2.516-.658-3.02-1.972l-3.68-9.577h-25.197l-3.586 9.577c-.504 1.314-1.542 1.972-3.115 1.972h-11.607Zm39.73-25.069-8.776-24.787-8.777 24.787h17.553Zm57.868 26.008c-8.87 0-15.823-2.16-20.856-6.479-4.97-4.319-7.455-10.828-7.455-19.529V40.882c0-.688.22-1.252.661-1.69.503-.438 1.069-.657 1.698-.657h12.174c.692 0 1.258.22 1.699.657.503.438.755 1.002.755 1.69v38.213c0 4.069.944 7.136 2.831 9.201 1.95 2.003 4.75 3.005 8.399 3.005 3.586 0 6.354-1.033 8.305-3.098 1.95-2.066 2.925-5.102 2.925-9.108V40.882c0-.688.221-1.252.661-1.69.503-.438 1.069-.657 1.699-.657h12.268c.692 0 1.258.22 1.699.657.44.438.66 1.002.66 1.69V79.19c0 8.7-2.516 15.21-7.549 19.53-4.971 4.318-11.828 6.478-20.574 6.478Zm42.997-.939c-.629 0-1.195-.219-1.699-.658-.44-.5-.66-1.064-.66-1.69V40.882c0-.688.22-1.252.66-1.69.504-.438 1.07-.657 1.699-.657h25.669c8.242 0 14.659 1.878 19.252 5.633 4.656 3.693 6.984 8.951 6.984 15.774 0 4.381-1.038 8.106-3.115 11.173-2.076 3.067-4.938 5.414-8.587 7.041l12.928 23.097c.189.376.284.72.284 1.033 0 .501-.221.97-.661 1.408-.377.376-.818.564-1.321.564h-12.552c-1.824 0-3.114-.845-3.869-2.535l-10.758-20.656h-9.626v20.843c0 .689-.252 1.252-.755 1.69-.441.439-1.007.658-1.699.658h-12.174Zm25.481-36.523c2.894 0 5.096-.689 6.606-2.066 1.51-1.44 2.265-3.411 2.265-5.915s-.755-4.475-2.265-5.915c-1.447-1.502-3.649-2.253-6.606-2.253h-10.853v16.149h10.853Zm39.768 36.523c-.629 0-1.195-.219-1.698-.658-.441-.5-.661-1.064-.661-1.69V40.882c0-.688.22-1.252.661-1.69.503-.438 1.069-.657 1.698-.657h12.646c.692 0 1.259.22 1.699.657.503.438.755 1.002.755 1.69v61.028c0 .689-.252 1.252-.755 1.69-.44.439-1.007.658-1.699.658H414.9ZM82.875 48.385c0 6.998-5.703 12.672-12.737 12.672-7.035 0-12.738-5.674-12.738-12.672 0-6.999 5.703-12.672 12.738-12.672 7.034 0 12.737 5.673 12.737 12.672Z" fill="#2F2F2F"/><ellipse cx="48.716" cy="84.673" rx="12.737" ry="12.672" transform="rotate(180 48.716 84.673)" fill="#2F2F2F"/><path fill-rule="evenodd" clip-rule="evenodd" d="M96.536 89.021a48.773 48.773 0 0 1-16.779 6.793 33.78 33.78 0 0 0 1.878-11.14c0-1.416-.087-2.811-.256-4.181a34.241 34.241 0 0 0 7.309-3.553 34.05 34.05 0 0 0 12.609-14.59 33.843 33.843 0 0 0 2.629-19.064 33.922 33.922 0 0 0-8.192-17.43 34.2 34.2 0 0 0-16.39-10.215 34.343 34.343 0 0 0-19.34.273A34.186 34.186 0 0 0 42.367 28.57a56.962 56.962 0 0 0-18.65 5.389 48.31 48.31 0 0 1 9.098-16.596A48.649 48.649 0 0 1 55.717 2.176a48.873 48.873 0 0 1 27.52-.388 48.67 48.67 0 0 1 23.326 14.537 48.28 48.28 0 0 1 11.658 24.804 48.163 48.163 0 0 1-3.741 27.129A48.46 48.46 0 0 1 96.536 89.02Zm-72.24-46.238 11.922 1.457a33.856 33.856 0 0 1 1.539-6.726 48.79 48.79 0 0 0-13.462 5.27Z" fill="#2F2F2F"/><path fill-rule="evenodd" clip-rule="evenodd" d="M22.235 44.037a48.773 48.773 0 0 1 16.913-6.82 33.761 33.761 0 0 0-2.094 11.744c0 1.234.066 2.454.195 3.654a34.246 34.246 0 0 0-7.166 3.503 34.05 34.05 0 0 0-12.609 14.59 33.842 33.842 0 0 0-2.63 19.064 33.924 33.924 0 0 0 8.194 17.43 34.202 34.202 0 0 0 16.39 10.215 34.345 34.345 0 0 0 19.339-.272 34.19 34.19 0 0 0 17.645-12.667 56.948 56.948 0 0 0 18.658-5.426 48.315 48.315 0 0 1-9.114 16.643 48.648 48.648 0 0 1-22.902 15.187 48.871 48.871 0 0 1-27.52.388 48.67 48.67 0 0 1-23.325-14.537A48.275 48.275 0 0 1 .549 91.929 48.161 48.161 0 0 1 4.293 64.8a48.455 48.455 0 0 1 17.943-20.763Z" fill="#2F2F2F"/></svg>
